X:1
T:Title
%%score ( 1 2 ) { 3 | 4 }
L:1/8
Q:1/4=100
M:4/4
K:Eb
V:1 treble nm="Grand Piano, Piano"
V:2 treble 
V:3 bass nm="Grand Piano, Piano"
V:4 bass 
V:1
 [B,E]2 [B,E]2 [DF]2 [EG]2 | [EA]3 [EA] [EG]4 | [B,E]2 [CE]2 [DF]2 [EG]2 | [EF]2 [DF]2 E4 | %4
w: 1.~Go~ to~ dark~ Geth|se ma ne,~|You~ who~ feel~ the~|temp ter's~ pow'r;~|
 E2 [EG]2 [FB]2 [GB]2 | [Ec]2 [Fc]2 [GB]4 | E2 [EG]2 [FB]2 [DB]2 | [Gc]2 c-[Ec] [DB]4 | %8
w: Your~ Re dee mer's~|con flict~ see;~|Watch~ with~ Him~ one~|bit ter~ * hour;~|
 E2 E2 [DF]2 [EG]2 | [EA]3 [EA] [EG]4 | E2 [DF]2 [EG]2 [CF]2 | [B,E]2 [B,D]2 [B,E]4 |] %12
w: Turn~ not~ from~ His~|griefs~ a way;~|Learn~ of~ Je sus~|Christ~ to~ pray.~|
V:2
 x8 | x8 | x8 | x8 | x8 | x8 | x8 | z2 .F2 z4 | x8 | x8 | x8 | x8 |] %12
V:3
 G,2 G,2 B,2 B,2 | C3 C B,4 | G,2 G,2 B,2 B,2 | C2 B,2 G,4 | G,2[K:treble] C2 D2 E2 | C2 D2 E4 | %6
 B,2 B,2 B,2 B,2 | B,2 =A,2 B,4 | B,2 B,2 A,2 B,2 | C3 C B,4 | B,2 A,2 B,2 A,2 | G,2 F,2 G,4 |] %12
V:4
 E,2 E,2 B,,2 E,2 | A,,3 A,, E,4 | E,2 C,2 B,,2 E,2 | A,,2 B,,2 E,4 | E,2 C,2 B,,2 E,2 | %5
 A,2 A,2 E,4 | G,2 E,2 D,2 G,2 | E,2 F,2 B,,4 | G,2 G,2 F,2 E,2 | A,,3 A,, E,4 | G,2 F,2 E,2 A,,2 | %11
 B,,2 B,,2 E,4 |] %12

